X:1
T:Better World, 86.86.88.86
T:Better World, 86.86.88.86
T:Adapted from Hubert Platt Main
T:Public Domain Courtesy of the Cyber Hymnal™
C:Adapted from Hubert Platt Main
Z:Public Domain
Z:Courtesy of the Cyber Hymnal™
%%score ( 1 2 ) ( 3 4 )
L:1/8
Q:1/4=108
M:4/4
K:D
V:1 treble 
V:2 treble 
V:3 bass 
V:4 bass 
V:1
 (DF) | [FA]2 [FA]2 A2 [Fd]2 | [GB]2 [Gd]2 [FA]4 | [FA]3 [EG] [DF]4 | [EG]3 [DF] [CE]2 (DF) | %5
 [FA]2 [FA]2 A2 [Fd]2 | [GB]2 [Gd]2 [FA]4 | [FA]3 [FA] [GB]4 | [Ec]3 [Ec] !fermata![Fd]2 (dc) | %9
 [DB]2 [DB]2 [DB]2 (cB) | [CA]2 [CA]2 [CA]2 (BA) | [B,G]2 [B,G]2 [B,G]2 (AG) | %12
 [DF]2 [DF]2 [DF]2 ([DF][EG]) | [FA]2 [FA]2 A2 [Fd]2 | [GB]2 [Gd]2 [FA]4 | [FA]3 [FA] [GB]4 | %16
 [Ec]3 [Ec] !fermata![Fd]2 |] %17
V:2
 D2 | x4 A2 x2 | x8 | x8 | x6 D2 | x4 A2 x2 | x8 | x8 | x6 D2 | x6 C2 | x6 B,2 | x6 A,2 | x8 | %13
 x4 A2 x2 | x8 | x8 | x6 |] %17
V:3
 (F,A,) | [D,D]2 [D,D]2 [F,D]2 [D,D]2 | [G,D]2 [B,,D]2 [D,D]4 | [F,A,]3 [E,G,] [D,F,]4 | %4
 [E,G,]3 [D,F,] [A,,E,]2 (F,A,) | [D,D]2 [D,D]2 [F,D]2 [D,D]2 | [G,D]2 [B,,D]2 [D,D]4 | %7
 [D,D]3 [D,D] [G,D]4 | A,3 A, !fermata![D,A,]2 [F,A,]2 | [G,B,]2 (G,A,) [G,B,]2 [E,G,]2 | %10
 [F,A,]2 (F,G,) [F,A,]2 [D,F,]2 | [E,G,]2 (E,F,) [E,G,]2 [C,E,]2 | %12
 [D,A,]2 [A,,A,]2 [D,A,]2 ([D,F,][E,G,]) | [F,A,]2 [D,A,]2 [F,D]2 [D,D]2 | [G,D]2 [B,,D]2 [D,D]4 | %15
 [D,D]3 [D,D] [G,D]4 | A,3 A, !fermata![D,A,]2 |] %17
V:4
 D,2 | x8 | x8 | x8 | x6 D,2 | x8 | x8 | x8 | A,3 A, x4 | x2 G,2 x4 | x2 F,2 x4 | x2 E,2 x4 | x8 | %13
 x8 | x8 | x8 | A,3 A, x2 |] %17

